src/main/resources/icons/GOTemplateIcons/icons/go_template_dark.svg

<svg xmlns="http://www.w3.org/2000/svg" width="16" height="16" viewBox="0 0 16 16">
  <g fill="none" fill-rule="evenodd">
    <path fill="#77BBE2" d="M12.1595014,10 L10.8,10 L7,12.6 L7,14.7565666 C5.03726636,14.3938031 3.71446154,12.9739476 3.71446154,11.2905 C3.71446154,11.2905 3.86138462,10.1493462 3.92407692,8.91203846 L3.91446154,8.91203846 C3.936,8.62242308 3.95215385,8.29973077 3.95215385,7.92319231 C3.95215385,6.38434615 3.71446154,4.5555 3.71446154,4.5555 C3.71446154,2.59973077 5.49984615,1.00011538 7.99984615,1.00011538 C10.4998462,1.00011538 12.2856154,2.59973077 12.2856154,4.5555 C12.2856154,4.5555 12.0479231,6.64088462 12.0479231,7.92319231 C12.0479231,8.2755 12.0675385,8.60742308 12.0933077,8.91203846 L12.081,8.91203846 C12.1018476,9.28112722 12.1303708,9.65812898 12.1595014,10 Z"/>
    <path fill="#77BBE2" d="M12.1595014,10 L10.8,10 L7,12.6 L7,14.7565666 C5.03726636,14.3938031 3.71446154,12.9739476 3.71446154,11.2905 C3.71446154,11.2905 3.86138462,10.1493462 3.92407692,8.91203846 L3.91446154,8.91203846 C3.936,8.62242308 3.95215385,8.29973077 3.95215385,7.92319231 C3.95215385,6.38434615 3.71446154,4.5555 3.71446154,4.5555 C3.71446154,2.59973077 5.49984615,1.00011538 7.99984615,1.00011538 C10.4998462,1.00011538 12.2856154,2.59973077 12.2856154,4.5555 C12.2856154,4.5555 12.0479231,6.64088462 12.0479231,7.92319231 C12.0479231,8.2755 12.0675385,8.60742308 12.0933077,8.91203846 L12.081,8.91203846 C12.1018476,9.28112722 12.1303708,9.65812898 12.1595014,10 Z"/>
    <path fill="#77BBE2" d="M13 3.17942308C13 3.67519231 12.6269231 4.07673077 12.1665385 4.07673077 11.7065385 4.07673077 11.3334615 3.67519231 11.3334615 3.17942308 11.3334615 2.68365385 11.7065385 2.28211538 12.1665385 2.28211538 12.6269231 2.28211538 13 2.68365385 13 3.17942308M3 3.17942308C3 3.67519231 3.37307692 4.07673077 3.83346154 4.07673077 4.29346154 4.07673077 4.66653846 3.67519231 4.66653846 3.17942308 4.66653846 2.68365385 4.29346154 2.28211538 3.83346154 2.28211538 3.37307692 2.28211538 3 2.68365385 3 3.17942308"/>
    <path fill="#FFF" d="M7.74346154,5.07788462 C7.74346154,5.91403846 7.05461538,6.59173077 6.205,6.59173077 C5.35538462,6.59173077 4.66653846,5.91403846 4.66653846,5.07788462 C4.66653846,4.24173077 5.35538462,3.56403846 6.205,3.56403846 C7.05461538,3.56403846 7.74346154,4.24173077 7.74346154,5.07788462"/>
    <path fill="#FFF" d="M7.74346154,5.07788462 C7.74346154,5.91403846 7.05461538,6.59173077 6.205,6.59173077 C5.35538462,6.59173077 4.66653846,5.91403846 4.66653846,5.07788462 C4.66653846,4.24173077 5.35538462,3.56403846 6.205,3.56403846 C7.05461538,3.56403846 7.74346154,4.24173077 7.74346154,5.07788462"/>
    <path fill="#000" d="M6.99338462,5.07338462 C6.99338462,5.48184615 6.68569231,5.81338462 6.30607692,5.81338462 C5.92684615,5.81338462 5.61915385,5.48184615 5.61915385,5.07338462 C5.61915385,4.66492308 5.92684615,4.33338462 6.30607692,4.33338462 C6.68569231,4.33338462 6.99338462,4.66492308 6.99338462,5.07338462"/>
    <path fill="#FFF" d="M11.1373846,5.07788462 C11.1373846,5.91403846 10.4485385,6.59173077 9.59892308,6.59173077 C8.74892308,6.59173077 8.06046154,5.91403846 8.06046154,5.07788462 C8.06046154,4.24173077 8.74892308,3.56403846 9.59892308,3.56403846 C10.4485385,3.56403846 11.1373846,4.24173077 11.1373846,5.07788462"/>
    <path fill="#000" d="M10.3869615,5.07338462 C10.3869615,5.48184615 10.0792692,5.81338462 9.70003846,5.81338462 C9.32042308,5.81338462 9.01273077,5.48184615 9.01273077,5.07338462 C9.01273077,4.66492308 9.32042308,4.33338462 9.70003846,4.33338462 C10.0792692,4.33338462 10.3869615,4.66492308 10.3869615,5.07338462"/>
    <polygon fill="#FFF" points="7.523 7.923 8.476 7.923 8.476 7.154 7.523 7.154"/>
    <path fill="#B7937F" d="M8.95253846,6.8975 C8.95253846,7.18057692 8.526,7.41019231 7.99984615,7.41019231 C7.47407692,7.41019231 7.04753846,7.18057692 7.04753846,6.8975 C7.04753846,6.61442308 7.47407692,6.38480769 7.99984615,6.38480769 C8.526,6.38480769 8.95253846,6.61442308 8.95253846,6.8975"/>
    <path fill="#000" d="M8.47626923,6.6325 C8.47626923,6.92057692 8.25973077,6.8975 7.99203846,6.8975 C7.72473077,6.8975 7.50780769,6.92057692 7.50780769,6.6325 C7.50780769,6.34442308 7.72473077,6.11134615 7.99203846,6.11134615 C8.25973077,6.11134615 8.47626923,6.34442308 8.47626923,6.6325"/>
    <path fill="#B7937F" fill-rule="nonzero" d="M13,8.27107692 C13,8.62492308 12.7334615,8.91223077 12.4046154,8.91223077 C12.0761538,8.91223077 11.8092308,8.62492308 11.8092308,8.27107692 C11.8092308,7.91723077 12.0761538,7.62992308 12.4046154,7.62992308 C12.7334615,7.62992308 13,7.91723077 13,8.27107692 M4.19065385,8.27107692 C4.19065385,8.62492308 3.92411538,8.91223077 3.59526923,8.91223077 C3.26680769,8.91223077 2.99988462,8.62492308 2.99988462,8.27107692 C2.99988462,7.91723077 3.26680769,7.62992308 3.59526923,7.62992308 C3.92411538,7.62992308 4.19065385,7.91723077 4.19065385,8.27107692 M5.1905,14.205 C5.1905,14.5592308 4.92396154,14.8461538 4.59511538,14.8461538 C4.26665385,14.8461538 3.99973077,14.5592308 3.99973077,14.205 C3.99973077,13.8511538 4.26665385,13.5642308 4.59511538,13.5642308 C4.92396154,13.5642308 5.1905,13.8511538 5.1905,14.205"/>
    <polygon fill="#9AA7B0" points="0 3 0 2 3 0 3 1 .8 2.5 3 4 3 5" transform="translate(8 11)"/>
    <polygon fill="#9AA7B0" points="0 3 0 2 3 0 3 1 .8 2.5 3 4 3 5" transform="matrix(-1 0 0 1 16 11)"/>
  </g>
</svg>

<svg xmlns="http://www.w3.org/2000/svg" width="16" height="16" viewBox="0 0 16 16"><rect id="frame" width="16" height="16" fill="none"/><g fill="none" fill-rule="evenodd"><path fill="#77BBE2" d="M12.16 10H10.8L7 12.6v2.157c-1.963-.363-3.286-1.783-3.286-3.466 0 0 .147-1.142.21-2.379h-.01c.022-.29.038-.612.038-.989 0-1.539-.238-3.367-.238-3.367C3.714 2.6 5.5 1 8 1c2.5 0 4.286 1.6 4.286 3.556 0 0-.238 2.085-.238 3.367 0 .352.02.684.045.989h-.012c.02.37.05.746.079 1.088z"/><path fill="#77BBE2" d="M12.16 10H10.8L7 12.6v2.157c-1.963-.363-3.286-1.783-3.286-3.466 0 0 .147-1.142.21-2.379h-.01c.022-.29.038-.612.038-.989 0-1.539-.238-3.367-.238-3.367C3.714 2.6 5.5 1 8 1c2.5 0 4.286 1.6 4.286 3.556 0 0-.238 2.085-.238 3.367 0 .352.02.684.045.989h-.012c.02.37.05.746.079 1.088z"/><path fill="#77BBE2" d="M13 3.18c0 .495-.373.897-.833.897-.46 0-.834-.402-.834-.898 0-.495.374-.897.834-.897.46 0 .833.402.833.897m-10 0c0 .496.373.898.833.898.46 0 .834-.402.834-.898 0-.495-.374-.897-.834-.897-.46 0-.833.402-.833.897"/><path fill="#FFF" d="M7.743 5.078c0 .836-.688 1.514-1.538 1.514-.85 0-1.538-.678-1.538-1.514s.688-1.514 1.538-1.514c.85 0 1.538.678 1.538 1.514"/><path fill="#FFF" d="M7.743 5.078c0 .836-.688 1.514-1.538 1.514-.85 0-1.538-.678-1.538-1.514s.688-1.514 1.538-1.514c.85 0 1.538.678 1.538 1.514"/><path fill="#000" d="M6.993 5.073c0 .409-.307.74-.687.74-.38 0-.687-.331-.687-.74 0-.408.308-.74.687-.74.38 0 .687.332.687.74"/><path fill="#FFF" d="M11.137 5.078c0 .836-.688 1.514-1.538 1.514-.85 0-1.539-.678-1.539-1.514S8.75 3.564 9.6 3.564s1.538.678 1.538 1.514"/><path fill="#000" d="M10.387 5.073c0 .409-.308.74-.687.74-.38 0-.687-.331-.687-.74 0-.408.307-.74.687-.74.38 0 .687.332.687.74"/><path fill="#FFF" d="M7.523 7.923h.953v-.769h-.953z"/><path fill="#B7937F" d="M8.953 6.897c0 .284-.427.513-.953.513s-.952-.23-.952-.513c0-.283.426-.512.952-.512s.953.23.953.513"/><path fill="#000" d="M8.476 6.633c0 .288-.216.264-.484.264-.267 0-.484.024-.484-.264 0-.289.217-.522.484-.522.268 0 .484.233.484.522"/><path fill="#B7937F" fill-rule="nonzero" d="M13 8.271c0 .354-.267.641-.595.641-.329 0-.596-.287-.596-.64 0-.355.267-.642.596-.642.328 0 .595.287.595.641m-8.81 0c0 .354-.266.641-.595.641-.328 0-.595-.287-.595-.64 0-.355.267-.642.595-.642.33 0 .596.287.596.641m1 5.934c0 .354-.267.641-.596.641-.328 0-.595-.287-.595-.641 0-.354.267-.64.595-.64.329 0 .596.286.596.64"/><path fill="#9AA7B0" d="M8 14v-1l3-2v1l-2.2 1.5L11 15v1z"/><path fill="#9AA7B0" d="M16 14v-1l-3-2v1l2.2 1.5L13 15v1z"/></g></svg>
